X:3
T: Caribou
C:Andy DeJarlis
R: reel
M: C|
K: Edor
"Em"B2ED EFGA| B2ED EFGE| "D"D2FD DADD| BDDA DDFD|
"Em"E2ED EFGA| Bdef g2fg| "C"afge "D"efec |1 "D"dBAF "Em"EdcA :|2 "D"dBAF "Em"E4|]
|:"Em"Be2B efed| Bdef edBd| "D"Ad2A d3e| fedf edBA|
"Em"Be2B efed| Bdef g2fg| "C"afge "D"efec| dBAF "Em"E4 :|

% Roaring Jelly - waltzes


#include "RightHeader.h"
% %vskip 10cm
% %center $2Waltzes
#include "LeftHeader.h"
% %center This page intentionally blank
#include "RightHeader.h"
% ---------- page 1 ----------

